X:376
T: Feierabend (103), S. 255
N: T0265
O: Luxemburg
S: Singendes Volk, Esch-Alzette 1937 posth.]
N: Blascheid, fff Barbara Kaisen-Kolbach, 1902
R: Liebeslieder]
M: 3/4
L: 1/16
K: F
F3F | F4C4A3A | A4F4
c4 | d4c4B2B2 | A2c2G4
B2B2 | B2d2d4c2B2 | A2c2c4
B2A2 | G4c4B4 | A4z4

@@@ Tune index: 8430
